icons/knime.svg

<!--
  - The MIT License (MIT)
  -
  - Copyright (c) 2015-2024 Elior "Mallowigi" Boukhobza
  -
  - Permission is hereby granted, free of charge, to any person obtaining a copy
  - of this software and associated documentation files (the "Software"), to deal
  - in the Software without restriction, including without limitation the rights
  - to use, copy, modify, merge, publish, distribute, sublicense, and/or sell
  - copies of the Software, and to permit persons to whom the Software is
  - furnished to do so, subject to the following conditions:
  -
  - The above copyright notice and this permission notice shall be included in all
  - copies or substantial portions of the Software.
  -
  - THE SOFTWARE IS PROVIDED "AS IS", WITHOUT WARRANTY OF ANY KIND, EXPRESS OR
  - IMPLIED, INCLUDING BUT NOT LIMITED TO THE WARRANTIES OF MERCHANTABILITY,
  - FITNESS FOR A PARTICULAR PURPOSE AND NONINFRINGEMENT. IN NO EVENT SHALL THE
  - AUTHORS OR COPYRIGHT HOLDERS BE LIABLE FOR ANY CLAIM, DAMAGES OR OTHER
  - LIABILITY, WHETHER IN AN ACTION OF CONTRACT, TORT OR OTHERWISE, ARISING FROM,
  - OUT OF OR IN CONNECTION WITH THE SOFTWARE OR THE USE OR OTHER DEALINGS IN THE
  - SOFTWARE.
  -
  -->

<svg  xmlns="http://www.w3.org/2000/svg" version="1.1" viewBox="0 0 512 512" width="16px" height="16px">
  <path fill="#ffd800" data-iconColor="KNIME"
        d="M256.0109558,34.2970886L0,477.7029114h512L256.0109558,34.2970886z M197.7172852,424.7914124V255.5031891l5.2516632-23.4995728l146.6161652,84.6187286l17.7284851,16.3144531L220.6844635,417.593689L197.7172852,424.7914124z M205.1775055,222.1264801l7.102066-31.7524567l104.7366943,96.3058472L205.1775055,222.1264801z M188.0685272,427.8182068l-31.0465393,9.724762l31.0465393-138.8571167V427.8182068z M374.7626953,339.7834167l23.9541016,22.0239868L262.9135437,404.356842L374.7626953,339.7834167z M216.7163391,178.0547791l10.0673218-26.6565094l118.7736206,145.129837L216.7163391,178.0547791z M144.1395569,439.8601685l-28.122818,4.5983887l66.3111115-175.4396973L144.1395569,439.8601685z M407.1617432,371.8076477l18.045105,22.0421448l-185.083252,30.2972717L407.1617432,371.8076477z M230.8911896,133.5448303l10.4651489-21.3288345l126.7918243,189.0476685L230.8911896,133.5448303z M98.4984589,449.8314514l-23.7042313,1.6001587l100.3414536-204.3481293L98.4984589,449.8314514z M438.6157227,406.3373718l13.2313232,19.728302L224.7252655,441.344635L438.6157227,406.3373718z M383.7655945,294.2253723L246.4489441,89.467926l9.5620117-16.549881L383.7655945,294.2253723z M161.2092285,237.1051331l-108.65625,221.2924805H33.4434433L161.2092285,237.1051331z M222.934906,458.3976135l246.0611267-16.5531921l9.5601501,16.5531921H222.934906z"/>
</svg>

<svg xmlns="http://www.w3.org/2000/svg" viewBox="0 0 512 512"><path fill="#ffd800" d="M256.011 34.297 0 477.703h512zm-58.294 390.494V255.503l5.252-23.5 146.616 84.62 17.729 16.314-146.63 84.657zm7.46-202.665 7.103-31.752 104.736 96.306zM188.07 427.818l-31.047 9.725 31.047-138.857zm186.694-88.035 23.954 22.024-135.803 42.55zM216.716 178.055l10.068-26.657 118.773 145.13zM144.14 439.86l-28.123 4.599 66.31-175.44zm263.022-68.052 18.045 22.042-185.083 30.297zm-176.27-238.263 10.464-21.329 126.792 189.048zM98.497 449.83l-23.704 1.6 100.342-204.348zm340.118-43.494 13.231 19.729-227.122 15.279zm-54.85-112.112L246.449 89.468l9.562-16.55zm-222.557-57.12L52.553 458.398h-19.11zm61.726 221.293 246.061-16.554 9.56 16.554z" data-iconColor="KNIME"/></svg>
